svgs/samsung_weather.svg

<svg width="192" height="192" viewBox="0 0 192 192" fill="none" xmlns="http://www.w3.org/2000/svg">
<path d="M22 141.731C22 152.925 31.046 162 42.2048 162H73.427H135.242H149.29C160.449 162 169.495 152.925 169.495 141.731C169.495 131.689 163.397 123.352 150.612 121.743C147.887 121.4 145.518 119.579 144.558 117.006C138.461 100.665 122.752 89.0327 104.334 89.0327C85.9172 89.0327 70.2084 100.665 64.111 117.006C63.1509 119.579 60.7963 121.463 58.0501 121.463H42.2048C31.046 121.463 22 130.537 22 141.731Z" stroke="black" stroke-width="12" stroke-linejoin="round"/>
<path d="M49.3282 119.942C47.9803 115.45 47.256 110.687 47.256 105.754C47.256 78.6087 69.1925 56.6027 96.2526 56.6027C123.313 56.6027 145.249 78.6087 145.249 105.754C145.249 108.339 145.05 110.878 144.667 113.355" stroke="black" stroke-width="12" stroke-linecap="round" stroke-linejoin="round"/>
<path d="M22 104.234H31.25M160.75 104.234H170M152.075 71.7567L160.086 67.1171M128.375 47.9816L133 39.9455M96 39.2793V30M63.625 47.9816L59 39.9455M39.9249 71.7567L31.9141 67.1171" stroke="black" stroke-width="12" stroke-linecap="round" stroke-linejoin="round"/>
</svg>

<svg width="192" height="192" viewBox="0 0 192 192" fill="none" xmlns="http://www.w3.org/2000/svg"><path d="M22 141.731C22 152.925 31.046 162 42.205 162H149.29c11.159 0 20.205-9.075 20.205-20.269 0-10.042-6.098-18.379-18.883-19.988-2.725-.343-5.094-2.164-6.054-4.737-6.097-16.341-21.806-27.973-40.224-27.973-18.417 0-34.126 11.632-40.223 27.973-.96 2.573-3.315 4.457-6.06 4.457H42.204c-11.159 0-20.205 9.074-20.205 20.268Z" stroke="#000" stroke-width="12" stroke-linejoin="round"/><path d="M49.328 119.942a49.293 49.293 0 0 1-2.072-14.188c0-27.145 21.936-49.151 48.997-49.151 27.06 0 48.996 22.006 48.996 49.151 0 2.585-.199 5.124-.582 7.601M22 104.234h9.25m129.5 0H170m-17.925-32.477 8.011-4.64m-31.711-19.135L133 39.946m-37-.667V30M63.625 47.982 59 39.946m-19.075 31.81-8.01-4.639" stroke="#000" stroke-width="12" stroke-linecap="round" stroke-linejoin="round"/></svg>
